usr/share/icons/biglinux-icons-material/22/actions/edit-copy.svg

<svg version="1.1" viewBox="0 0 22 22" xmlns="http://www.w3.org/2000/svg">
 <defs>
  <style id="current-color-scheme" type="text/css">.ColorScheme-Text {
        color:#363636;
      }</style>
 </defs>
 <path d="m6 2c-1.662 0-3 1.338-3 3v10c0 1.3601 0.90221 2.491 2.1387 2.8613 0.37037 1.2365 1.5012 2.1387 2.8613 2.1387h6l5-5v-8c0-1.3601-0.90221-2.491-2.1387-2.8613-0.37037-1.2365-1.5012-2.1387-2.8613-2.1387zm0 1h8c0.74107 0 1.379 0.4042 1.7246 1h-7.7246c-1.662 0-3 1.338-3 3v9.7246c-0.5958-0.34556-1-0.98354-1-1.7246v-10c0-1.108 0.892-2 2-2zm10 1c0.16418 0 0.32328 0.018407 0.47852 0.046875-0.15686-0.025129-0.31436-0.046875-0.47852-0.046875zm-8 1h8c1.108 0 2 0.892 2 2v7h-5v5h-5c-1.108 0-2-0.892-2-2v-10c0-1.108 0.892-2 2-2zm6 10h3.5859l-3.5859 3.5859zm-9 2c0 0.16416 0.021746 0.32166 0.046875 0.47852-0.028468-0.15524-0.046875-0.31433-0.046875-0.47852z" class="ColorScheme-Text" fill="currentColor"/>
</svg>

<svg xmlns="http://www.w3.org/2000/svg" viewBox="0 0 22 22"><path fill="currentColor" d="M6 2C4.338 2 3 3.338 3 5v10c0 1.36.902 2.491 2.139 2.861A2.984 2.984 0 0 0 8 20h6l5-5V7c0-1.36-.902-2.491-2.139-2.861A2.984 2.984 0 0 0 14 2zm0 1h8a1.99 1.99 0 0 1 1.725 1H8C6.338 4 5 5.338 5 7v9.725A1.99 1.99 0 0 1 4 15V5c0-1.108.892-2 2-2zm10 1zM8 5h8c1.108 0 2 .892 2 2v7h-5v5H8c-1.108 0-2-.892-2-2V7c0-1.108.892-2 2-2zm6 10h3.586L14 18.586zm-9 2z" style="color:#dedede"/></svg>
